icons/communication/email-x-24.svg

<svg width="24" height="24" viewBox="0 0 24 24" fill="none" xmlns="http://www.w3.org/2000/svg">
<g clip-path="url(#clip0_248_36)">
<path d="M15.2197 15.2197C15.5126 14.9268 15.9874 14.9268 16.2803 15.2197L19 17.9393L21.7197 15.2197C22.0126 14.9268 22.4874 14.9268 22.7803 15.2197C23.0732 15.5126 23.0732 15.9874 22.7803 16.2803L20.0607 19L22.7803 21.7197C23.0732 22.0126 23.0732 22.4874 22.7803 22.7803C22.4874 23.0732 22.0126 23.0732 21.7197 22.7803L19 20.0607L16.2803 22.7803C15.9874 23.0732 15.5126 23.0732 15.2197 22.7803C14.9268 22.4874 14.9268 22.0126 15.2197 21.7197L17.9393 19L15.2197 16.2803C14.9268 15.9874 14.9268 15.5126 15.2197 15.2197Z" fill="black"/>
<path fill-rule="evenodd" clip-rule="evenodd" d="M0 4.75C0 3.7835 0.783502 3 1.75 3H22.25C23.2165 3 24 3.7835 24 4.75V11.375C24 11.7892 23.6642 12.125 23.25 12.125C22.8358 12.125 22.5 11.7892 22.5 11.375V7.18716L12.7516 11.8231C12.276 12.0492 11.724 12.0492 11.2484 11.8231L1.5 7.18715V18.75C1.5 18.8881 1.61193 19 1.75 19H9.25C9.66421 19 10 19.3358 10 19.75C10 20.1642 9.66421 20.5 9.25 20.5H1.75C0.783502 20.5 0 19.7165 0 18.75V4.75ZM1.5 5.52618L11.8926 10.4685C11.9606 10.5008 12.0394 10.5008 12.1074 10.4685L22.5 5.52618V4.75C22.5 4.61193 22.3881 4.5 22.25 4.5H1.75C1.61193 4.5 1.5 4.61193 1.5 4.75V5.52618Z" fill="black"/>
</g>
<defs>
<clipPath id="clip0_248_36">
<rect width="24" height="24" fill="white"/>
</clipPath>
</defs>
</svg>

<svg xmlns="http://www.w3.org/2000/svg" width="24" height="24"><path d="M15.22 15.22a.75.75 0 011.06 0L19 17.94l2.72-2.72a.75.75 0 111.06 1.06L20.06 19l2.72 2.72a.75.75 0 11-1.06 1.06L19 20.06l-2.72 2.72a.75.75 0 11-1.06-1.06L17.94 19l-2.72-2.72a.75.75 0 010-1.06z"/><path fill-rule="evenodd" d="M0 4.75C0 3.784.784 3 1.75 3h20.5c.966 0 1.75.784 1.75 1.75v6.625a.75.75 0 01-1.5 0V7.187l-9.748 4.636a1.75 1.75 0 01-1.504 0L1.5 7.187V18.75c0 .138.112.25.25.25h7.5a.75.75 0 010 1.5h-7.5A1.75 1.75 0 010 18.75v-14zm1.5.776l10.393 4.943a.25.25 0 00.214 0L22.5 5.526V4.75a.25.25 0 00-.25-.25H1.75a.25.25 0 00-.25.25v.776z"/></svg>
